images/icons/paypal.svg

<svg width="34" height="10" viewBox="0 0 34 10" fill="none" xmlns="http://www.w3.org/2000/svg">
<path d="M14.0906 9.25385H12.8979C12.7452 9.25385 12.6611 9.11806 12.7697 8.96875L14.0621 7.18274L12.7444 3.42971C12.675 3.23437 12.764 3.07556 12.9828 3.07556H14.0441C14.2474 3.07556 14.3585 3.15496 14.4025 3.29948L15.1578 5.68741L16.8477 3.30506C16.9587 3.14861 17.0363 3.07391 17.2298 3.07391H18.3589C18.5638 3.07391 18.6226 3.2566 18.4977 3.43048L14.445 9.08467C14.3784 9.19192 14.2594 9.2562 14.1326 9.25619C14.1187 9.25619 14.1047 9.25543 14.0906 9.25385ZM24.2853 5.67949C24.402 4.15156 25.4903 2.95955 27.1044 2.92703C27.7991 2.9111 28.2971 3.11286 28.4923 3.56235C28.5478 3.68936 28.6074 3.66713 28.6294 3.54091L28.6719 3.29868C28.6988 3.1446 28.7494 3.08821 28.8531 3.08821H30.0027C30.1569 3.08821 30.2068 3.18513 30.1741 3.38289L29.5291 7.32011C29.4859 7.58542 29.4001 7.65446 29.2238 7.65446H28.1772C28.0367 7.65446 27.9771 7.57662 27.9967 7.42974L28.0351 7.14858C28.0506 7.03108 27.9412 7.08033 27.8334 7.1756L27.8384 7.17796C27.4187 7.55125 27.0464 7.78947 26.2136 7.78947C25.0658 7.78947 24.1955 6.86112 24.2853 5.67949ZM25.8789 5.36979C25.7785 6.03048 26.2626 6.56966 26.9574 6.56966C27.6522 6.56966 28.3021 6.03048 28.4024 5.36979C28.5029 4.70904 28.0188 4.16986 27.324 4.16986C26.6292 4.16986 25.9794 4.70904 25.8789 5.36979ZM6.10533 5.67949C6.22206 4.15156 7.31037 2.95955 8.92435 2.92703C9.61918 2.9111 10.1172 3.11286 10.3123 3.56235C10.3678 3.68936 10.4274 3.66713 10.4495 3.54091L10.4919 3.29868C10.5188 3.1446 10.5695 3.08821 10.6731 3.08821H11.8243C11.9786 3.08821 12.0284 3.18513 11.9957 3.38289L11.3508 7.32011C11.3075 7.58542 11.2218 7.65446 11.0454 7.65446H9.9988C9.85841 7.65446 9.79882 7.57662 9.81835 7.42974L9.85673 7.14858C9.87224 7.03108 9.76283 7.08033 9.6551 7.1756L9.65833 7.17796C9.23869 7.55125 8.86636 7.78947 8.03365 7.78947C6.8858 7.78947 6.01554 6.86112 6.10533 5.67949ZM7.69978 5.36979C7.59935 6.03048 8.08347 6.56966 8.77821 6.56966C9.47383 6.56966 10.1229 6.03048 10.2233 5.36979C10.3237 4.70904 9.8396 4.16986 9.14479 4.16986C8.45006 4.16986 7.80014 4.70904 7.69978 5.36979ZM31.7849 7.66082H30.5766C30.534 7.66267 30.4929 7.64595 30.4643 7.61522C30.4357 7.58448 30.4227 7.54303 30.4288 7.50201L31.4902 0.961564C31.5111 0.869663 31.5942 0.803839 31.691 0.80276H32.8993C32.9418 0.800889 32.983 0.817543 33.0116 0.848273C33.0402 0.879027 33.0532 0.920535 33.0471 0.961564L31.9857 7.50201C31.9655 7.59457 31.8821 7.6611 31.7848 7.66239L31.7849 7.66082ZM18.7582 7.64016C18.5703 7.64016 18.505 7.52344 18.5467 7.26215L19.5206 1.19106C19.5688 0.892467 19.684 0.78125 19.8937 0.78125H22.7137V0.782881C23.7807 0.782881 24.7653 1.34587 24.6306 2.74914C24.4674 4.41679 23.5489 5.33957 22.0998 5.34357H20.8343C20.6523 5.34357 20.564 5.48807 20.5167 5.78433L20.2718 7.29867C20.235 7.52739 20.1142 7.64016 19.9362 7.64016H18.7582ZM22.0075 2.10668L21.1045 2.11063L20.7951 4.03242H21.7544C22.3544 4.01019 22.7528 3.60601 22.7929 2.87701C22.8173 2.42838 22.5069 2.10668 22.0129 2.10667C22.0111 2.10667 22.0093 2.10667 22.0075 2.10668ZM0.579018 7.64016C0.391191 7.64016 0.325862 7.52344 0.367524 7.26215L1.33985 1.19264C1.38807 0.894038 1.50314 0.782881 1.71299 0.782881H4.53292H4.53531C5.60237 0.782881 6.58697 1.34587 6.45229 2.74914C6.28902 4.41679 5.37056 5.33957 3.92141 5.34357H2.65511C2.47302 5.34357 2.38484 5.48807 2.33753 5.78433L2.09264 7.29867C2.0559 7.52739 1.93503 7.64016 1.75706 7.64016H0.579018ZM3.82914 2.10668L2.92616 2.11063L2.61675 4.03242H3.57608C4.1761 4.01019 4.57455 3.60601 4.61454 2.87701C4.6389 2.42838 4.3286 2.10668 3.83456 2.10667C3.83273 2.10667 3.83096 2.10667 3.82914 2.10668Z" fill="#303030"/>
</svg>

<svg version="1.2" xmlns="http://www.w3.org/2000/svg" viewBox="0 0 34 10" width="34" height="10"><style>.a{fill:#f2f2f2}</style><path class="a" d="m14.1 9.3h-1.2c-0.2 0-0.2-0.2-0.1-0.3l1.3-1.8-1.4-3.8c0-0.2 0.1-0.3 0.3-0.3h1q0.3 0 0.4 0.2l0.8 2.4 1.6-2.4c0.2-0.2 0.2-0.2 0.4-0.2h1.2c0.2 0 0.2 0.2 0.1 0.3l-4.1 5.7q-0.1 0.2-0.3 0.2 0 0 0 0zm10.2-3.6c0.1-1.5 1.2-2.7 2.8-2.8 0.7 0 1.2 0.2 1.4 0.7q0.1 0.1 0.1-0.1l0.1-0.2q0-0.2 0.2-0.2h1.1q0.2 0 0.2 0.3l-0.7 3.9c0 0.3-0.1 0.4-0.3 0.4h-1q-0.2 0-0.2-0.3v-0.3c0.1-0.1-0.1 0-0.2 0.1-0.4 0.4-0.8 0.6-1.6 0.6-1.1 0-2-0.9-1.9-2.1zm1.6-0.3c-0.1 0.6 0.4 1.2 1.1 1.2 0.7 0 1.3-0.6 1.4-1.2 0.1-0.7-0.4-1.2-1.1-1.2-0.7 0-1.3 0.5-1.4 1.2zm-19.8 0.3c0.1-1.5 1.2-2.7 2.8-2.8 0.7 0 1.2 0.2 1.4 0.7q0.1 0.1 0.1-0.1l0.1-0.2q0-0.2 0.2-0.2h1.1q0.3 0 0.2 0.3l-0.6 3.9c-0.1 0.3-0.2 0.4-0.4 0.4h-1q-0.2 0-0.2-0.3l0.1-0.3c0-0.1-0.1 0-0.2 0.1-0.5 0.4-0.8 0.6-1.7 0.6-1.1 0-2-0.9-1.9-2.1zm1.6-0.3c-0.1 0.6 0.4 1.2 1.1 1.2 0.7 0 1.3-0.6 1.4-1.2 0.1-0.7-0.4-1.2-1.1-1.2-0.6 0-1.3 0.5-1.4 1.2zm24.1 2.3h-1.2q-0.1 0-0.1-0.1-0.1 0-0.1-0.1l1.1-6.5q0-0.2 0.2-0.2h1.2q0.1 0 0.1 0 0.1 0.1 0 0.2l-1 6.5q-0.1 0.2-0.2 0.2zm-13-0.1q-0.3 0-0.3-0.3l1-6.1c0.1-0.3 0.2-0.4 0.4-0.4h2.8c1.1 0 2.1 0.5 1.9 2-0.1 1.6-1.1 2.5-2.5 2.5h-1.3q-0.2 0-0.3 0.5l-0.2 1.5q-0.1 0.3-0.4 0.3zm3.3-5.5h-0.9l-0.3 1.9h0.9c0.6 0 1-0.4 1.1-1.1 0-0.5-0.3-0.8-0.8-0.8q0 0 0 0zm-21.4 5.5q-0.3 0-0.3-0.3l1-6.1c0.1-0.3 0.2-0.4 0.4-0.4h2.8c1.1 0 2.1 0.5 1.9 2-0.1 1.6-1.1 2.5-2.5 2.5h-1.3q-0.2 0-0.3 0.5l-0.2 1.5q-0.1 0.3-0.4 0.3zm3.3-5.5h-0.9l-0.3 1.9h0.9c0.6 0 1-0.4 1.1-1.1 0-0.5-0.3-0.8-0.8-0.8q0 0 0 0z"/></svg>
